Simply-White-Circles/scalable/apps/system-users.svg

<?xml version="1.0" encoding="UTF-8" standalone="no"?><svg xmlns:dc="http://purl.org/dc/elements/1.1/" xmlns:cc="http://creativecommons.org/ns#" xmlns:rdf="http://www.w3.org/1999/02/22-rdf-syntax-ns#" xmlns="http://www.w3.org/2000/svg" width="48" height="48" viewBox="0 0 12.7 12.7"><metadata><rdf:RDF><cc:Work><dc:format>image/svg+xml</dc:format><dc:type rdf:resource="http://purl.org/dc/dcmitype/StillImage"/><dc:title/></cc:Work></rdf:RDF></metadata><path d="M6.34.07a6.29 6.29 0 0 0-6.29 6.3 6.29 6.29 0 0 0 6.3 6.28 6.29 6.29 0 0 0 6.28-6.29A6.29 6.29 0 0 0 6.34.07zm-.01.94a5.4 5.4 0 0 1 5.4 5.4 5.4 5.4 0 0 1-5.4 5.41 5.4 5.4 0 0 1-5.41-5.4A5.4 5.4 0 0 1 6.32 1zm.87 1.01c-.93 0-1.68.72-1.68 1.6 0 .32.03.7.22 1.58.06.17.31.46.57.73l-.02.19c-.13.1-.3.2-.47.28A2.76 2.76 0 0 1 5.09 6v-.17c.12-.17.24-.33.27-.42.13-.62.13-.85.14-1.08 0-.6-.47-1.07-1.06-1.07-.58 0-1.06.48-1.06 1.07 0 .22.02.48.14 1.08.03.09.15.23.27.38v.21c-.52.43-1.93.62-1.93 1.07L1.7 8.4c0 .38.92.7 2.14.78.2.5 1.63.87 3.37.87 1.87 0 3.39-.44 3.39-.99l-.22-1.64c0-.47-1.64-.76-2.27-1.31l-.01-.13c.24-.3.5-.61.56-.79.21-.9.21-1.25.22-1.59 0-.87-.75-1.58-1.67-1.58z" fill="#e6e6e6"/></svg>

<?xml version="1.0" encoding="UTF-8" standalone="no"?>
<svg
   xmlns:dc="http://purl.org/dc/elements/1.1/"
   xmlns:cc="http://creativecommons.org/ns#"
   xmlns:rdf="http://www.w3.org/1999/02/22-rdf-syntax-ns#"
   xmlns:svg="http://www.w3.org/2000/svg"
   xmlns="http://www.w3.org/2000/svg"
   xmlns:sodipodi="http://sodipodi.sourceforge.net/DTD/sodipodi-0.dtd"
   xmlns:inkscape="http://www.inkscape.org/namespaces/inkscape"
   width="48"
   height="48"
   viewBox="0 0 12.7 12.7"
   version="1.1"
   id="svg6"
   sodipodi:docname="system-users.svg"
   inkscape:version="0.92.4 (5da689c313, 2019-01-14)">
  <defs
     id="defs10" />
  <sodipodi:namedview
     pagecolor="#ffffff"
     bordercolor="#666666"
     borderopacity="1"
     objecttolerance="10"
     gridtolerance="10"
     guidetolerance="10"
     inkscape:pageopacity="0"
     inkscape:pageshadow="2"
     inkscape:window-width="1087"
     inkscape:window-height="480"
     id="namedview8"
     showgrid="false"
     inkscape:zoom="4.9166667"
     inkscape:cx="2.1355932"
     inkscape:cy="24"
     inkscape:window-x="0"
     inkscape:window-y="25"
     inkscape:window-maximized="0"
     inkscape:current-layer="svg6" />
  <metadata
     id="metadata2">
    <rdf:RDF>
      <cc:Work>
        <dc:format>image/svg+xml</dc:format>
        <dc:type
           rdf:resource="http://purl.org/dc/dcmitype/StillImage" />
        <dc:title></dc:title>
      </cc:Work>
    </rdf:RDF>
  </metadata>
  <path
     d="M 6.34,0.07 A 6.29,6.29 0 0 0 0.05,6.37 6.29,6.29 0 0 0 6.35,12.65 6.29,6.29 0 0 0 12.63,6.36 6.29,6.29 0 0 0 6.34,0.07 Z M 6.33,1.01 a 5.4,5.4 0 0 1 5.4,5.4 5.4,5.4 0 0 1 -5.4,5.41 A 5.4,5.4 0 0 1 0.92,6.42 5.4,5.4 0 0 1 6.32,1 Z M 7.2,2.02 c -0.93,0 -1.68,0.72 -1.68,1.6 0,0.32 0.03,0.7 0.22,1.58 0.06,0.17 0.31,0.46 0.57,0.73 L 6.29,6.12 C 6.16,6.22 5.99,6.32 5.82,6.4 A 2.76,2.76 0 0 1 5.09,6 V 5.83 C 5.21,5.66 5.33,5.5 5.36,5.41 5.49,4.79 5.49,4.56 5.5,4.33 5.5,3.73 5.03,3.26 4.44,3.26 3.86,3.26 3.38,3.74 3.38,4.33 3.38,4.55 3.4,4.81 3.52,5.41 3.55,5.5 3.67,5.64 3.79,5.79 V 6 C 3.27,6.43 1.86,6.62 1.86,7.07 L 1.7,8.4 c 0,0.38 0.92,0.7 2.14,0.78 0.2,0.5 1.63,0.87 3.37,0.87 1.87,0 3.39,-0.44 3.39,-0.99 L 10.38,7.42 C 10.38,6.95 8.74,6.66 8.11,6.11 L 8.1,5.98 C 8.34,5.68 8.6,5.37 8.66,5.19 8.87,4.29 8.87,3.94 8.88,3.6 8.88,2.73 8.13,2.02 7.21,2.02 Z"
     id="path4"
     inkscape:connector-curvature="0"
     style="fill:#e6e6e6" />
</svg>
